X:19
T:Springlek
T:N{\aa}sragan
R:polska K1
A:Dalarna
Z:id:hn-k1-19
M:3/4
L:1/8
K:D
A|A2 a2 g>e|f>e fa gf|Sd>c (3def g>f|d2 e/f/e/d/ c>A|
A2 a2 g>e|f>e fa gf|Sd>c (3def g>e|S(3cec d3:|
|:A|d2 AB G>A|FG EF D2-|D2 de/f/ g>f|d2 e/f/e/d/ c>A|
d2 AB G>A|FG EF D2-|D2 de/f/ g>e|S(3cec d3:|

